X:86
T:New Boe Peep
T:Picadilly
M:6/4
L:1/4
K:C
%
e/f/ | g3 e3 | ded B>cd | cdB A>GA/B/ | G3 - G2 :|
B | c>d e e>dc | d B2 G2 B | c>de e>dc | d B2 G2 e/^f/ |
g3-g2 ^f/g/ | a3-a2 e/-^f/ | g3-g2 ^f/g/ | a3-a2 g/a/ |
b2 e e2 f | g2 d Bcd | d c2 B A3 | G3-G2 :|
%
%
